Origami/24x24/apps/unknown-horizons.svg

<svg width="24" height="24" version="1.1" viewBox="0 0 24 24" xmlns="http://www.w3.org/2000/svg">
 <path d="m14 5.5v11s-4-2.5135-4-5.5 4-5.5 4-5.5z" style="opacity:.2"/>
 <path d="m14 5.5v-3l4 1.5z" style="opacity:.2"/>
 <path d="m8 9.5v7s-3-1.5995-3-3.5 3-3.5 3-3.5z" style="opacity:.2"/>
 <path d="m15 16.5h-13s3 5 12 5c6 0 8-3.5 8-5 0-1.297655 0-2-1-2h-5c-1 0-1 0.800928-1 2z" style="opacity:.2"/>
 <path d="m14 5v11s-4-2.5135-4-5.5 4-5.5 4-5.5z" style="fill:#cccccc"/>
 <path d="m14 5v-3l4 1.5z" style="fill:#c83737"/>
 <path d="m8 9v7s-3-1.5995-3-3.5 3-3.5 3-3.5z" style="fill:#cccccc"/>
 <path d="m15 16h-13s3 5 12 5c6 0 8-3.5 8-5 0-1.297655 0-2-1-2h-5c-1 0-1 0.800928-1 2z" style="fill:#784421"/>
 <path d="m16 15.5s0-0.5 0.5-0.5 0.5 0.5 0.5 0.5v1.5h-1z" style="opacity:.4"/>
 <path d="m18 15.5s0-0.5 0.5-0.5 0.5 0.5 0.5 0.5v1.5h-1z" style="opacity:.4"/>
 <path d="m20 15.5s0-0.5 0.5-0.5 0.5 0.5 0.5 0.5v1.5h-1z" style="opacity:.4"/>
 <path d="m14 5s-4 2.5135-4 5.5c0 0.084107 0.013365 0.166688 0.019531 0.25 0.212789-2.8749283 3.980469-5.25 3.980469-5.25v-0.5z" style="fill:#ffffff;opacity:.1"/>
 <path d="m14 2v0.5l3.333984 1.25 0.666016-0.25-4-1.5z" style="fill:#ffffff;opacity:.1"/>
 <path d="m8 9s-3 1.5995-3 3.5c0 0.084461 0.0121138 0.166842 0.0234375 0.25 0.2434754-1.788023 2.9765625-3.25 2.9765625-3.25v-0.5z" style="fill:#ffffff;opacity:.1"/>
 <path d="m16 14c-1 0-1 0.800928-1 2h-13s0.1472581 0.213374 0.3789062 0.5h12.621094c0-1.199072 0-2 1-2h5c0.869888 0 0.977461 0.560254 0.992188 1.552734 4.2e-4 -0.015745 0.007812-0.037401 0.007812-0.052734 0-1.297655 0-2-1-2h-5z" style="fill:#ffffff;opacity:.1"/>
</svg>

<svg xmlns="http://www.w3.org/2000/svg" width="24" height="24" version="1.1" viewBox="0 0 24 24">
 <path style="opacity:0.2" d="m 14,5.5 v 11 c 0,0 -4,-2.5135 -4,-5.5 0,-2.9865 4,-5.5 4,-5.5 z"/>
 <path style="opacity:0.2" d="m 14,5.5 v -3 L 18,4 Z"/>
 <path style="opacity:0.2" d="m 8,9.5 v 7 C 8,16.5 5,14.9005 5,13 5,11.0995 8,9.5 8,9.5 Z"/>
 <path style="opacity:0.2" d="M 15,16.5 H 2 c 0,0 3,5 12,5 6,0 8,-3.5 8,-5 0,-1.297655 0,-2 -1,-2 h -5 c -1,0 -1,0.800928 -1,2 z"/>
 <path style="fill:#cccccc" d="M 14,5 V 16 C 14,16 10,13.4865 10,10.5 10,7.5135 14,5 14,5 Z"/>
 <path style="fill:#c83737" d="M 14,5 V 2 l 4,1.5 z"/>
 <path style="fill:#cccccc" d="m 8,9 v 7 C 8,16 5,14.4005 5,12.5 5,10.5995 8,9 8,9 Z"/>
 <path style="fill:#784421" d="M 15,16 H 2 c 0,0 3,5 12,5 6,0 8,-3.5 8,-5 0,-1.297655 0,-2 -1,-2 h -5 c -1,0 -1,0.800928 -1,2 z"/>
 <path style="opacity:0.4" d="m 16,15.5 c 0,0 0,-0.5 0.5,-0.5 0.5,0 0.5,0.5 0.5,0.5 V 17 h -1 z"/>
 <path style="opacity:0.4" d="m 18,15.5 c 0,0 0,-0.5 0.5,-0.5 0.5,0 0.5,0.5 0.5,0.5 V 17 h -1 z"/>
 <path style="opacity:0.4" d="m 20,15.5 c 0,0 0,-0.5 0.5,-0.5 0.5,0 0.5,0.5 0.5,0.5 V 17 h -1 z"/>
 <path style="fill:#ffffff;opacity:0.1" d="M 14 5 C 14 5 10 7.5135 10 10.5 C 10 10.584107 10.013365 10.666688 10.019531 10.75 C 10.23232 7.8750717 14 5.5 14 5.5 L 14 5 z"/>
 <path style="fill:#ffffff;opacity:0.1" d="M 14 2 L 14 2.5 L 17.333984 3.75 L 18 3.5 L 14 2 z"/>
 <path style="fill:#ffffff;opacity:0.1" d="M 8 9 C 8 9 5 10.5995 5 12.5 C 5 12.584461 5.0121138 12.666842 5.0234375 12.75 C 5.2669129 10.961977 8 9.5 8 9.5 L 8 9 z"/>
 <path style="fill:#ffffff;opacity:0.1" d="M 16 14 C 15 14 15 14.800928 15 16 L 2 16 C 2 16 2.1472581 16.213374 2.3789062 16.5 L 15 16.5 C 15 15.300928 15 14.5 16 14.5 L 21 14.5 C 21.869888 14.5 21.977461 15.060254 21.992188 16.052734 C 21.992608 16.036989 22 16.015333 22 16 C 22 14.702345 22 14 21 14 L 16 14 z"/>
</svg>
